X: 1284
T: Let us to the Aird.   a Strathspey.
%R: strathspey
B: Niel Gow & Sons "Complete Repository" v.1 p.28 #4 (and top staff of p.29)
Z: 2021 John Chambers <jc:trillian.mit.edu>
M: C
L: 1/8
K: F
% - - - - - - - - - -
% Voice 1 formatted for compactness and proofreading.
V: 1 staves=2
d |\
Tc>AFc (AF)c>A | c>dcA (AG)G>d | Tc>AFc AFc>A | Tf>a{fg}gc A/A/A A :| c | Tf>ga>f g>ef>d | c>Af>d Tc>AGc |
Tf>ga>f g>ef>d | c>Afg a>c A>c || Tf>g{fg}a>f g>ef>d | c<Af>d c>A G>d | Tc>AFc A<Fc>B | Tf>g{fg}a>c A/A/A A |]
% - - - - - - - - - -
% Voice 2 preserves the book's staff layout.
V: 2 clef=bass middle=d
z |\
f2f2 f2f2 | a2f2 c2e2 | f2f2 f2f2 | a2c'2 f2f :| z | f2f2 c'2b2 | a2b2 c'2c2 |
f2f2 c'2b2 | a2f2 F2f2 || f2f2 c2B2 | A2B2 c2[c2C2] | f2f2 f2a2 | c'2c2 f2f |]


